X:1
T:Sons of men, behold from far
T:Sons of men, behold from far - Damascus (John Massey)
C:John Massey
Z:Text: Charles Wesley
%%score [ 1 2 3 4 ]
L:1/8
M:2/2
K:F
V:1 treble nm="Soprano" snm="S."
V:2 treble nm="Alto" snm="A."
V:3 treble-8 transpose=-12 nm="Tenor" snm="T."
V:4 bass nm="Bass" snm="B."
V:1
 c4 (f2 d2) | c4 (G2 AB) | A4 G4 | F8 | (A3 G A2) B2 | c4 (d2 e2) | (f2 e2) d4 | c8 | %8
w: Mild he _|shines on _ _|all be-|neath,|Pier- * * cing|through the _|shade _ of|death,|
w: Sons of _|men, be- * *|hold from|far,|Hail _ _ the|long- ex- *|pec- * ted|star;|
w: Fear not _|hence that _ _|ill should|flow,|Wars _ _ or|pes- ti- *|lence _ be-|low,|
 (d3 c d2) e2 | (f2 c2) (B2 A2) | (B3 c dc)(BA) | (A4 G4) |!p! (F3 G A2) B2 | (c3 d c2) A2 | %14
w: Scatt- * * ’ring|er- * ror’s _|wide- * * * spread _|night, _|Kind- * * ling|dark- * * ness|
w: Ja- * * cob’s|star _ that _|gilds _ _ _ the _|night, _|Guides _ _ be-|wil- * * der’d|
w: Wars _ _ it|bids _ and _|tu- * * * mults _|cease, _|Ush- * * ’ring|in _ _ the|
 (d3 c de) f2 | e8 |!f! (f3 e d2) c2 | (d3 e fd)(cB) | A4 G4 | F8 |] %20
w: in- * * * to|light,|kind- * * ling|dark- * * * ness _|in- to|light.|
w: na- * * * ture|right,|guides _ _ be-|wil- * * * der’d _|na- ture|right.|
w: Prince _ _ _ of|Peace,|ush- * * ’ring|in _ _ _ the _|Prince of|Peace.|
V:2
 F4 (A2 GF) | F4 F4 | F4 E4 | F8 | (F3 G F2) E2 | F4 (D2 G2) | (A2 G2) (G2 F2) | E8 | F6 C2 | %9
w: Mild he _ _|shines on|all be-|neath,|Pier- * * cing|through the _|shade _ of _|death,|Scatt- ’ring|
w: Sons of _ _|men, be-|hold from|far,|Hail _ _ the|long- ex- *|pec- * ted _|star;|Ja- cob’s|
w: Fear not _ _|hence that|ill should|flow,|Wars _ _ or|pes- ti- *|lence _ be- *|low,|Wars it|
 (C2 F2) (G2 F2) | F6 F2 | (F4 E4) | z8 | z8 | z8 | z8 | (A4 B2) F2 | F6 F2 | F4 E4 | F8 |] %20
w: er- * ror’s _|wide- spread|night, _|||||Kind- * ling|dark- ness|in- to|light.|
w: star _ that _|gilds the|night, _|||||Guides _ be-|wil- der’d|na- ture|right.|
w: bids _ and _|tu- mults|cease, _|||||Ush- * ’ring|in the|Prince of|Peace.|
V:3
 A4 (c2 B2) | A4 d4 | c4 (c2 B2) | A8 | c6 B2 | A4 (=B2 c2) | c4 =B4 | c8 | (B3 c B2) G2 | A4 c4 | %10
w: Mild he _|shines on|all be- *|neath,|Pier- cing|through the _|shade of|death,|Scatt- * * ’ring|er- ror’s|
w: Sons of _|men, be-|hold from _|far,|Hail the|long- ex- *|pec- ted|star;|Ja- * * cob’s|star that|
w: Fear not _|hence that|ill should _|flow,|Wars or|pes- ti- *|lence be-|low,|Wars _ _ it|bids and|
 (d3 c Bc) d2 | c8 | z8 | z8 | z8 | z8 | (c4 B2) A2 | (F3 G AB)(cd) | c6 B2 | A8 |] %20
w: wide- * * * spread|night,|||||Kind- * ling|dark- * * * ness _|in- to|light.|
w: gilds _ _ _ the|night,|||||Guides _ be-|wil- * * * der’d _|na- ture|right.|
w: tu- * * * mults|cease,|||||Ush- * ’ring|in _ _ _ the _|Prince of|Peace.|
V:4
 F,4 (F,2 G,2) |"^6" A,4"^65" B,4 |"^64" C4"^53" C,4 | F,8 | (F,3 E, F,2)"^6" G,2 | %5
w: Mild he _|shines on|all be-|neath,|Pier- * * cing|
w: Sons of _|men, be-|hold from|far,|Hail _ _ the|
w: Fear not _|hence that|ill should|flow,|Wars _ _ or|
"^6" A,4"^E""^64" G,4 |"^64""^53" C4"^5E""^7" G,4 | C,8 | (B,3 A,"^7" G,2)"^7" C2 | %9
w: through the|shade of|death,|Scatt- * * ’ring|
w: long- ex-|pec- ted|star;|Ja- * * cob’s|
w: pes- ti-|lence be-|low,|Wars _ _ it|
 F,4"^65" (E,2 F,2) | B,,6"^7" =B,,2 |"^64""^53" C,8 |"^["!p!"^]" (F,3 E, F,2)"^6" G,2 | %13
w: er- ror’s _|wide- spread|night,|Kind- * * ling|
w: star that _|gilds the|night,|Guides _ _ be-|
w: bids and _|tu- mults|cease,|Ush- * * ’ring|
"^Notes: The original order of staves is Tenor - Alto - Air - Bass, with the Alto part printed in the treble clef anoctave above sounding pitch.Only the first verse of the text is given in the source: subsequent verses have here been added editorially.""^6" (A,3 B, A,2) F,2 | %14
w: dark- * * ness|
w: wil- * * der’d|
w: in _ _ the|
 (B,3 A, G,2)"^There behold the Day-Spring rise,Pouring eye-sight on your eyes,God in his own light survey,Shining to the perfect day.Sing, ye morning stars again,God descends on earth to reign,Deigns for man his life t'employ;Shout, ye sons of God, for joy!" F,2 | %15
w: in- * * to|
w: na- * * ture|
w: Prince _ _ of|
"^["!f!"^]" C8 | (F,4"^53" G,2)"^6" A,2 | B,6"^6" (A,B,) |"^64" C4"^53""^7" C,4 | F,8 |] %20
w: light,|kind- * ling|dark- ness _|in- to|light.|
w: right,|guides _ be-|wil- der’d _|na- ture|right.|
w: Peace,|ush- * ’ring|in the _|Prince of|Peace.|

